packages/icons/src/components/Logo/assets/light/metabase.svg

<svg width="20" height="20" viewBox="0 0 20 20" fill="none" xmlns="http://www.w3.org/2000/svg">
<path d="M4.6368 7.05984C5.16574 7.05984 5.59453 6.6242 5.59453 6.0868C5.59453 5.54941 5.16574 5.11377 4.6368 5.11377C4.10787 5.11377 3.67908 5.54941 3.67908 6.0868C3.67908 6.6242 4.10787 7.05984 4.6368 7.05984Z" fill="#509EE3"/>
<path d="M4.6368 9.78445C5.16574 9.78445 5.59453 9.3488 5.59453 8.81141C5.59453 8.27402 5.16574 7.83838 4.6368 7.83838C4.10787 7.83838 3.67908 8.27402 3.67908 8.81141C3.67908 9.3488 4.10787 9.78445 4.6368 9.78445Z" fill="#509EE3"/>
<path opacity="0.2" d="M7.31844 7.05984C7.84738 7.05984 8.27617 6.6242 8.27617 6.0868C8.27617 5.54941 7.84738 5.11377 7.31844 5.11377C6.78951 5.11377 6.36072 5.54941 6.36072 6.0868C6.36072 6.6242 6.78951 7.05984 7.31844 7.05984Z" fill="#509EE3"/>
<path d="M7.31844 9.81081C7.84738 9.81081 8.27617 9.37517 8.27617 8.83778C8.27617 8.30039 7.84738 7.86475 7.31844 7.86475C6.78951 7.86475 6.36072 8.30039 6.36072 8.83778C6.36072 9.37517 6.78951 9.81081 7.31844 9.81081Z" fill="#509EE3"/>
<path opacity="0.2" d="M10.0001 7.05984C10.529 7.05984 10.9578 6.6242 10.9578 6.0868C10.9578 5.54941 10.529 5.11377 10.0001 5.11377C9.47115 5.11377 9.04236 5.54941 9.04236 6.0868C9.04236 6.6242 9.47115 7.05984 10.0001 7.05984Z" fill="#509EE3"/>
<path opacity="0.2" d="M10.0001 3.94607C10.529 3.94607 10.9578 3.51043 10.9578 2.97303C10.9578 2.43564 10.529 2 10.0001 2C9.47115 2 9.04236 2.43564 9.04236 2.97303C9.04236 3.51043 9.47115 3.94607 10.0001 3.94607Z" fill="#509EE3"/>
<path opacity="0.2" d="M10.0001 9.81081C10.529 9.81081 10.9578 9.37517 10.9578 8.83778C10.9578 8.30039 10.529 7.86475 10.0001 7.86475C9.47115 7.86475 9.04236 8.30039 9.04236 8.83778C9.04236 9.37517 9.47115 9.81081 10.0001 9.81081Z" fill="#509EE3"/>
<path opacity="0.2" d="M12.6817 7.05984C13.2107 7.05984 13.6395 6.6242 13.6395 6.0868C13.6395 5.54941 13.2107 5.11377 12.6817 5.11377C12.1528 5.11377 11.724 5.54941 11.724 6.0868C11.724 6.6242 12.1528 7.05984 12.6817 7.05984Z" fill="#509EE3"/>
<path d="M15.3632 7.05984C15.8922 7.05984 16.321 6.6242 16.321 6.0868C16.321 5.54941 15.8922 5.11377 15.3632 5.11377C14.8343 5.11377 14.4055 5.54941 14.4055 6.0868C14.4055 6.6242 14.8343 7.05984 15.3632 7.05984Z" fill="#509EE3"/>
<path d="M12.6817 9.81081C13.2107 9.81081 13.6395 9.37517 13.6395 8.83778C13.6395 8.30039 13.2107 7.86475 12.6817 7.86475C12.1528 7.86475 11.724 8.30039 11.724 8.83778C11.724 9.37517 12.1528 9.81081 12.6817 9.81081Z" fill="#509EE3"/>
<path d="M15.3632 9.81081C15.8922 9.81081 16.321 9.37517 16.321 8.83778C16.321 8.30039 15.8922 7.86475 15.3632 7.86475C14.8343 7.86475 14.4055 8.30039 14.4055 8.83778C14.4055 9.37517 14.8343 9.81081 15.3632 9.81081Z" fill="#509EE3"/>
<path d="M4.6368 12.5086C5.16574 12.5086 5.59453 12.0729 5.59453 11.5355C5.59453 10.9981 5.16574 10.5625 4.6368 10.5625C4.10787 10.5625 3.67908 10.9981 3.67908 11.5355C3.67908 12.0729 4.10787 12.5086 4.6368 12.5086Z" fill="#509EE3"/>
<path opacity="0.2" d="M7.31844 12.5354C7.84738 12.5354 8.27617 12.0998 8.27617 11.5624C8.27617 11.025 7.84738 10.5894 7.31844 10.5894C6.78951 10.5894 6.36072 11.025 6.36072 11.5624C6.36072 12.0998 6.78951 12.5354 7.31844 12.5354Z" fill="#509EE3"/>
<path d="M10.0001 12.5354C10.529 12.5354 10.9578 12.0998 10.9578 11.5624C10.9578 11.025 10.529 10.5894 10.0001 10.5894C9.47115 10.5894 9.04236 11.025 9.04236 11.5624C9.04236 12.0998 9.47115 12.5354 10.0001 12.5354Z" fill="#509EE3"/>
<path opacity="0.2" d="M12.6817 12.5354C13.2107 12.5354 13.6395 12.0998 13.6395 11.5624C13.6395 11.025 13.2107 10.5894 12.6817 10.5894C12.1528 10.5894 11.724 11.025 11.724 11.5624C11.724 12.0998 12.1528 12.5354 12.6817 12.5354Z" fill="#509EE3"/>
<path d="M15.3632 12.5354C15.8922 12.5354 16.321 12.0998 16.321 11.5624C16.321 11.025 15.8922 10.5894 15.3632 10.5894C14.8343 10.5894 14.4055 11.025 14.4055 11.5624C14.4055 12.0998 14.8343 12.5354 15.3632 12.5354Z" fill="#509EE3"/>
<path d="M4.6368 15.2332C5.16574 15.2332 5.59453 14.7975 5.59453 14.2601C5.59453 13.7228 5.16574 13.2871 4.6368 13.2871C4.10787 13.2871 3.67908 13.7228 3.67908 14.2601C3.67908 14.7975 4.10787 15.2332 4.6368 15.2332Z" fill="#509EE3"/>
<path opacity="0.2" d="M7.31844 15.2595C7.84738 15.2595 8.27617 14.8239 8.27617 14.2865C8.27617 13.7491 7.84738 13.3135 7.31844 13.3135C6.78951 13.3135 6.36072 13.7491 6.36072 14.2865C6.36072 14.8239 6.78951 15.2595 7.31844 15.2595Z" fill="#509EE3"/>
<path opacity="0.2" d="M10.0001 15.2595C10.529 15.2595 10.9578 14.8239 10.9578 14.2865C10.9578 13.7491 10.529 13.3135 10.0001 13.3135C9.47115 13.3135 9.04236 13.7491 9.04236 14.2865C9.04236 14.8239 9.47115 15.2595 10.0001 15.2595Z" fill="#509EE3"/>
<path opacity="0.2" d="M10.0001 17.9842C10.529 17.9842 10.9578 17.5485 10.9578 17.0111C10.9578 16.4737 10.529 16.0381 10.0001 16.0381C9.47115 16.0381 9.04236 16.4737 9.04236 17.0111C9.04236 17.5485 9.47115 17.9842 10.0001 17.9842Z" fill="#509EE3"/>
<path opacity="0.2" d="M12.6817 15.2595C13.2107 15.2595 13.6395 14.8239 13.6395 14.2865C13.6395 13.7491 13.2107 13.3135 12.6817 13.3135C12.1528 13.3135 11.724 13.7491 11.724 14.2865C11.724 14.8239 12.1528 15.2595 12.6817 15.2595Z" fill="#509EE3"/>
<path d="M15.3632 15.2595C15.8922 15.2595 16.321 14.8239 16.321 14.2865C16.321 13.7491 15.8922 13.3135 15.3632 13.3135C14.8343 13.3135 14.4055 13.7491 14.4055 14.2865C14.4055 14.8239 14.8343 15.2595 15.3632 15.2595Z" fill="#509EE3"/>
</svg>

<svg xmlns="http://www.w3.org/2000/svg" width="20" height="20" fill="none" viewBox="0 0 20 20">
    <path fill="#509ee3" d="M4.637 7.06a.965.965 0 0 0 .958-.973.965.965 0 0 0-.958-.973.965.965 0 0 0-.958.973c0 .537.429.973.958.973m0 2.724a.965.965 0 0 0 .958-.973.965.965 0 0 0-.958-.973.965.965 0 0 0-.958.973c0 .538.429.973.958.973"/>
    <path fill="#509ee3" d="M7.318 7.06a.965.965 0 0 0 .958-.973.965.965 0 0 0-.958-.973.965.965 0 0 0-.957.973c0 .537.429.973.957.973" opacity=".2"/>
    <path fill="#509ee3" d="M7.318 9.81a.965.965 0 0 0 .958-.972.965.965 0 0 0-.958-.973.965.965 0 0 0-.957.973c0 .537.429.973.957.973"/>
    <path fill="#509ee3" d="M10 7.06a.965.965 0 0 0 .958-.973.965.965 0 0 0-.958-.973.965.965 0 0 0-.958.973c0 .537.43.973.958.973m0-3.114a.965.965 0 0 0 .958-.973A.965.965 0 0 0 10 2a.965.965 0 0 0-.958.973c0 .537.43.973.958.973m0 5.864a.965.965 0 0 0 .958-.972.965.965 0 0 0-.958-.973.965.965 0 0 0-.958.973c0 .537.43.973.958.973m2.682-2.751a.965.965 0 0 0 .957-.973.965.965 0 0 0-.957-.973.965.965 0 0 0-.958.973c0 .537.429.973.958.973" opacity=".2"/>
    <path fill="#509ee3" d="M15.363 7.06a.965.965 0 0 0 .958-.973.965.965 0 0 0-.958-.973.965.965 0 0 0-.957.973c0 .537.428.973.957.973m-2.681 2.75a.965.965 0 0 0 .957-.972.965.965 0 0 0-.957-.973.965.965 0 0 0-.958.973c0 .537.429.973.958.973m2.681-.001a.965.965 0 0 0 .958-.972.965.965 0 0 0-.958-.973.965.965 0 0 0-.957.973c0 .537.428.973.957.973M4.637 12.509a.966.966 0 0 0 .958-.973.965.965 0 0 0-.958-.973.965.965 0 0 0-.958.973c0 .537.429.973.958.973"/>
    <path fill="#509ee3" d="M7.318 12.535a.965.965 0 0 0 .958-.973.965.965 0 0 0-.958-.973.965.965 0 0 0-.957.973c0 .538.429.973.957.973" opacity=".2"/>
    <path fill="#509ee3" d="M10 12.535a.965.965 0 0 0 .958-.973.965.965 0 0 0-.958-.973.965.965 0 0 0-.958.973c0 .538.43.973.958.973"/>
    <path fill="#509ee3" d="M12.682 12.535a.965.965 0 0 0 .957-.973.965.965 0 0 0-.957-.973.965.965 0 0 0-.958.973c0 .538.429.973.958.973" opacity=".2"/>
    <path fill="#509ee3" d="M15.363 12.535a.965.965 0 0 0 .958-.973.965.965 0 0 0-.958-.973.965.965 0 0 0-.957.973c0 .538.428.973.957.973M4.637 15.233a.966.966 0 0 0 .958-.973.966.966 0 0 0-.958-.973.966.966 0 0 0-.958.973c0 .537.429.973.958.973"/>
    <path fill="#509ee3" d="M7.318 15.26a.965.965 0 0 0 .958-.973.965.965 0 0 0-.958-.974.965.965 0 0 0-.957.973c0 .538.429.973.957.973M10 15.26a.965.965 0 0 0 .958-.973.965.965 0 0 0-.958-.974.965.965 0 0 0-.958.973c0 .538.43.973.958.973m0 2.725a.966.966 0 0 0 .958-.973.965.965 0 0 0-.958-.973.965.965 0 0 0-.958.973c0 .538.43.973.958.973m2.682-2.724a.965.965 0 0 0 .957-.973.965.965 0 0 0-.957-.974.965.965 0 0 0-.958.973c0 .538.429.973.958.973" opacity=".2"/>
    <path fill="#509ee3" d="M15.363 15.26a.965.965 0 0 0 .958-.973.965.965 0 0 0-.958-.974.965.965 0 0 0-.957.973c0 .538.428.973.957.973"/>
</svg>
